svg/color/uni.svg

<svg width="64" height="65" viewBox="0 0 64 65" fill="none" xmlns="http://www.w3.org/2000/svg">
<g clip-path="url(#clip0_11313_5458)">
<rect y="0.303711" width="64" height="64" rx="32" fill="#FF007A"/>
<path d="M25.1929 14.3998C24.6667 14.3247 24.6416 14.2997 24.8922 14.2746C25.3683 14.1995 26.4708 14.2997 27.2476 14.4749C29.0518 14.9005 30.6806 16.002 32.4096 17.9296L32.8607 18.4554L33.5122 18.3552C36.2936 17.9046 39.1502 18.2551 41.5307 19.3566C42.1823 19.657 43.2096 20.2578 43.3349 20.408C43.385 20.4581 43.4602 20.7835 43.5103 21.109C43.6857 22.2856 43.6106 23.1618 43.2347 23.8377C43.0342 24.2132 43.0342 24.3134 43.1595 24.6388C43.2598 24.8892 43.5605 25.0644 43.8361 25.0644C44.4375 25.0644 45.0639 24.1131 45.3646 22.7863L45.4899 22.2606L45.7154 22.5109C46.9934 23.9379 47.9957 25.9156 48.1461 27.3175L48.1962 27.693L47.9707 27.3676C47.5948 26.7918 47.244 26.4163 46.7679 26.0908C45.9159 25.515 45.0138 25.3398 42.6333 25.2146C40.4783 25.0894 39.2505 24.9142 38.0477 24.5137C35.9929 23.8377 34.9405 22.9615 32.5098 19.7321C31.4323 18.3051 30.7558 17.5291 30.0792 16.8782C28.6008 15.4512 27.1224 14.7002 25.1929 14.3998Z" fill="white"/>
<path d="M43.8615 17.5791C43.9116 16.6278 44.0369 16.002 44.3125 15.4262C44.4128 15.2009 44.513 15.0006 44.538 15.0006C44.5631 15.0006 44.513 15.1759 44.4378 15.3761C44.2373 15.9269 44.2123 16.7029 44.3376 17.5791C44.513 18.7057 44.5882 18.8559 45.7909 20.0826C46.3422 20.6584 46.9937 21.3844 47.2443 21.6848L47.6703 22.2355L47.2443 21.835C46.7181 21.3343 45.5153 20.383 45.2397 20.2578C45.0643 20.1577 45.0392 20.1577 44.9139 20.2829C44.8137 20.383 44.7886 20.5332 44.7886 21.2592C44.7636 22.3857 44.6132 23.0867 44.2373 23.8127C44.0369 24.1882 44.0118 24.1131 44.1872 23.6875C44.3125 23.3621 44.3376 23.2119 44.3376 22.1354C44.3376 19.9574 44.087 19.4317 42.5585 18.5555C42.1826 18.3302 41.5311 18.0047 41.1552 17.8295C40.7543 17.6542 40.4536 17.504 40.4786 17.504C40.5287 17.454 42.0072 17.8796 42.5835 18.1299C43.4605 18.4804 43.6109 18.5054 43.7111 18.4804C43.7863 18.4053 43.8364 18.205 43.8615 17.5791Z" fill="white"/>
<path d="M26.2202 21.3092C25.1678 19.8572 24.4912 17.6041 24.6416 15.9268L24.6917 15.4011L24.9423 15.4512C25.3933 15.5263 26.1701 15.8267 26.546 16.052C27.5483 16.6528 27.9994 17.479 28.4254 19.5318C28.5506 20.1326 28.726 20.8336 28.8012 21.0589C28.9265 21.4344 29.4026 22.3106 29.8035 22.8614C30.0792 23.2619 29.9038 23.4622 29.2773 23.4121C28.3251 23.312 27.0472 22.4358 26.2202 21.3092Z" fill="white"/>
<path d="M42.5832 32.1992C37.6217 30.1965 35.8677 28.4691 35.8677 25.5401C35.8677 25.1145 35.8927 24.764 35.8927 24.764C35.9178 24.764 36.0932 24.9142 36.3187 25.0895C37.321 25.8906 38.4487 26.2411 41.5809 26.6917C43.4102 26.9671 44.4626 27.1673 45.4148 27.4928C48.4468 28.4942 50.3262 30.547 50.7772 33.3258C50.9025 34.1269 50.8273 35.654 50.6269 36.4551C50.4515 37.0809 49.9503 38.2325 49.825 38.2575C49.8 38.2575 49.7498 38.1324 49.7498 37.9321C49.6997 36.8807 49.1735 35.8793 48.2965 35.1032C47.244 34.202 45.8909 33.5261 42.5832 32.1992Z" fill="white"/>
<path d="M39.0753 33.0252C39.0252 32.6497 38.8999 32.1741 38.8247 31.9738L38.6995 31.5983L38.925 31.8736C39.2507 32.2492 39.5013 32.6998 39.7268 33.3256C39.9022 33.8013 39.9022 33.9515 39.9022 34.7276C39.9022 35.4786 39.8772 35.6538 39.7268 36.0794C39.4763 36.7553 39.1756 37.231 38.6744 37.7567C37.7723 38.683 36.5946 39.1837 34.9157 39.409C34.615 39.434 33.763 39.5091 33.0113 39.5592C31.1319 39.6593 29.879 39.8596 28.7514 40.2601C28.6011 40.3102 28.4507 40.3603 28.4256 40.3352C28.3755 40.2852 29.1523 39.8346 29.7788 39.5341C30.6558 39.1086 31.5579 38.8833 33.5375 38.5328C34.5148 38.3826 35.5171 38.1823 35.7677 38.0822C38.2484 37.3061 39.4763 35.3784 39.0753 33.0252Z" fill="white"/>
<path d="M41.3556 37.0561C40.704 35.6292 40.5537 34.2773 40.9045 33.0006C40.9546 32.8754 41.0047 32.7502 41.0549 32.7502C41.105 32.7502 41.2553 32.8253 41.4057 32.9255C41.7064 33.1258 42.3328 33.4762 43.9365 34.3524C45.9662 35.454 47.1189 36.3051 47.9208 37.2815C48.6224 38.1326 49.0484 39.109 49.2489 40.3106C49.3741 40.9865 49.299 42.6138 49.1236 43.2897C48.5723 45.4176 47.3194 47.1199 45.4901 48.0963C45.2145 48.2465 44.989 48.3466 44.9639 48.3466C44.9389 48.3466 45.0391 48.0963 45.1894 47.7959C45.7908 46.5191 45.866 45.2924 45.415 43.9155C45.1393 43.0644 44.563 42.038 43.4103 40.3106C42.0321 38.3079 41.7064 37.7821 41.3556 37.0561Z" fill="white"/>
<path d="M22.6871 44.7164C24.5414 43.1643 26.8217 42.0628 28.9266 41.7123C29.8287 41.5621 31.3321 41.6122 32.1591 41.8375C33.4871 42.188 34.6899 42.939 35.3164 43.8653C35.9178 44.7665 36.1934 45.5426 36.469 47.2699C36.5693 47.9459 36.6946 48.6468 36.7196 48.797C36.9201 49.6983 37.321 50.3992 37.8222 50.7747C38.599 51.3505 39.9521 51.3756 41.2802 50.8749C41.5057 50.7998 41.7062 50.7247 41.7062 50.7497C41.7563 50.7998 41.0797 51.2504 40.6287 51.4757C40.0022 51.8012 39.5011 51.9013 38.8245 51.9013C37.6217 51.9013 36.5943 51.2754 35.7674 50.0237C35.592 49.7734 35.2412 49.0474 34.9405 48.3715C34.0635 46.3437 33.6124 45.7429 32.585 45.0669C31.683 44.4911 30.5303 44.366 29.6533 44.7915C28.5006 45.3423 28.1999 46.8193 29.0017 47.7206C29.3275 48.0961 29.9289 48.3965 30.4301 48.4716C31.3572 48.5968 32.1591 47.8708 32.1591 46.9445C32.1591 46.3437 31.9335 45.9932 31.3321 45.7178C30.5303 45.3673 29.6533 45.7679 29.6783 46.5439C29.6783 46.8694 29.8287 47.0697 30.1544 47.2199C30.3549 47.32 30.3549 47.32 30.2045 47.295C29.4778 47.1448 29.3024 46.2435 29.8788 45.6677C30.5804 44.9668 32.0588 45.2672 32.56 46.2435C32.7605 46.6441 32.7855 47.4452 32.6101 47.9459C32.1841 49.0474 30.9813 49.6232 29.7535 49.2977C28.9266 49.0724 28.5758 48.8471 27.5734 47.8207C25.8194 46.0182 25.1428 45.6677 22.637 45.2922L22.1609 45.2171L22.6871 44.7164Z" fill="white"/>
<path fill-rule="evenodd" clip-rule="evenodd" d="M24.7923 23.1367C25.1682 23.6374 25.0178 24.113 24.3914 24.4635C24.0405 24.6638 23.3139 24.8641 22.9631 24.8641C22.5621 24.8641 22.086 24.6638 21.7603 24.3383C21.5347 24.113 19.0996 20.5276 16.8945 17.0979L18.177 19.8322C20.1064 23.2619 20.7329 24.4885 20.7329 24.6388C20.7329 24.9642 20.6326 25.1394 20.2317 25.5901C19.5552 26.3411 19.2545 27.1923 19.0289 28.9697C18.7784 30.9474 18.1018 32.3493 16.1723 34.7276C15.0447 36.1295 14.8693 36.3799 14.5937 36.9556C14.2428 37.6566 14.1426 38.0572 14.0925 38.9584C14.0424 39.9097 14.1426 40.5105 14.4182 41.4118C14.6688 42.2129 14.9445 42.7386 15.621 43.765C16.1974 44.6662 16.5482 45.3421 16.5482 45.5925C16.5482 45.7928 16.5983 45.7928 17.5004 45.5925C19.6554 45.0918 21.4345 44.2406 22.4118 43.1892C23.0132 42.5383 23.1635 42.1878 23.1635 41.2866C23.1635 40.7108 23.1385 40.5856 22.9881 40.2351C22.7375 39.6844 22.2614 39.2338 21.234 38.5328C19.8809 37.6065 19.3046 36.8555 19.1542 35.8541C19.0289 35.003 19.1793 34.4272 19.931 32.85C20.7078 31.2228 20.9083 30.5469 21.0336 28.8946C21.1088 27.8431 21.234 27.4176 21.5347 27.0921C21.8605 26.7416 22.1361 26.6165 22.9129 26.5163C24.1909 26.3411 25.0178 26.0156 25.6693 25.3898C26.2457 24.8641 26.4962 24.3383 26.5213 23.5623L26.5464 22.9865L26.2206 22.636C25.7108 22.0509 24.0907 20.1569 22.4118 18.1933C20.8202 16.332 14.4183 9.38123 14.4183 9.38123C14.3093 9.24811 21.694 19.0096 24.7923 23.1367ZM17.1997 40.0349C17.4753 39.5592 17.325 38.9584 16.8739 38.658C16.448 38.3826 15.7964 38.5078 15.7964 38.8833C15.7964 38.9834 15.8466 39.0836 15.9969 39.1336C16.2224 39.2588 16.2475 39.384 16.0721 39.6594C15.8967 39.9347 15.8967 40.1851 16.1222 40.3603C16.473 40.6357 16.9491 40.4855 17.1997 40.0349Z" fill="white"/>
<path fill-rule="evenodd" clip-rule="evenodd" d="M27.3482 26.8666C26.7468 27.0419 26.1705 27.6927 25.9951 28.3436C25.8948 28.7442 25.9449 29.4702 26.1203 29.6955C26.396 30.046 26.6466 30.1461 27.3482 30.1461C28.7264 30.1461 29.9041 29.5453 30.0294 28.8193C30.1547 28.2185 29.6285 27.3923 28.9018 27.0168C28.5259 26.8165 27.7491 26.7414 27.3482 26.8666ZM28.9519 28.1183C29.1524 27.8179 29.0772 27.4925 28.7013 27.2672C28.0248 26.8416 26.9974 27.1921 26.9974 27.843C26.9974 28.1684 27.5236 28.5189 28.0248 28.5189C28.3505 28.5189 28.8016 28.3186 28.9519 28.1183Z" fill="white"/>
</g>
<rect x="0.5" y="0.803711" width="63" height="63" rx="31.5" stroke="#070B14" stroke-opacity="0.15"/>
<defs>
<clipPath id="clip0_11313_5458">
<rect y="0.303711" width="64" height="64" rx="32" fill="white"/>
</clipPath>
</defs>
</svg>

<svg xmlns="http://www.w3.org/2000/svg" width="64" height="65" fill="none" viewBox="0 0 64 65"><g clip-path="url(#uni_svg-a)"><rect width="64" height="64" y=".304" fill="#FF007A" rx="32"/><path fill="#fff" d="M25.193 14.4c-.526-.075-.551-.1-.3-.125.475-.075 1.578.025 2.355.2 1.804.425 3.433 1.527 5.162 3.455l.45.525.652-.1c2.782-.45 5.638-.1 8.019 1.002.651.3 1.679.9 1.804 1.051.05.05.125.375.175.701.176 1.177.1 2.053-.275 2.729-.2.375-.2.475-.075.8.1.251.4.426.676.426.602 0 1.228-.95 1.529-2.278l.125-.525.225.25c1.278 1.427 2.28 3.405 2.431 4.807l.05.375-.225-.325c-.376-.576-.727-.952-1.203-1.277-.852-.576-1.754-.751-4.135-.876-2.155-.126-3.383-.3-4.585-.701-2.055-.676-3.108-1.552-5.538-4.782-1.078-1.427-1.754-2.203-2.43-2.854-1.48-1.427-2.958-2.178-4.887-2.478"/><path fill="#fff" d="M43.862 17.58c.05-.952.175-1.578.45-2.154.1-.225.201-.425.226-.425s-.025.175-.1.375c-.2.55-.226 1.327-.1 2.203.175 1.127.25 1.277 1.453 2.504a41 41 0 0 1 1.453 1.602l.426.55-.426-.4c-.526-.5-1.729-1.452-2.004-1.577-.176-.1-.2-.1-.326.025-.1.1-.125.25-.125.976-.025 1.127-.176 1.828-.552 2.554-.2.375-.225.3-.05-.125.126-.326.15-.476.15-1.553 0-2.178-.25-2.703-1.779-3.58a19 19 0 0 0-1.403-.726c-.4-.175-.701-.325-.676-.325.05-.05 1.528.376 2.105.626.877.35 1.027.375 1.127.35.075-.075.125-.275.15-.9M26.22 21.31c-1.052-1.453-1.729-3.706-1.578-5.383l.05-.526.25.05c.451.075 1.228.376 1.604.601 1.002.6 1.453 1.427 1.88 3.48.125.6.3 1.302.375 1.527.126.375.602 1.252 1.003 1.802.275.4.1.601-.527.551-.952-.1-2.23-.976-3.057-2.103M42.583 32.2c-4.961-2.004-6.715-3.73-6.715-6.66 0-.425.025-.776.025-.776.025 0 .2.15.426.326 1.002.8 2.13 1.151 5.262 1.602 1.83.275 2.882.475 3.834.8 3.032 1.002 4.911 3.055 5.362 5.834.126.8.05 2.328-.15 3.13-.175.625-.677 1.776-.802 1.801-.025 0-.075-.125-.075-.325-.05-1.051-.577-2.053-1.453-2.829-1.053-.901-2.406-1.577-5.714-2.904m-3.508.826a6 6 0 0 0-.25-1.051l-.126-.376.226.276c.326.375.576.826.802 1.452.175.475.175.626.175 1.402 0 .75-.025.926-.175 1.351a4.5 4.5 0 0 1-1.053 1.678c-.902.926-2.08 1.427-3.758 1.652-.301.025-1.153.1-1.905.15-1.88.1-3.132.3-4.26.701-.15.05-.3.1-.325.075-.05-.05.726-.5 1.353-.8.877-.426 1.779-.652 3.759-1.002.977-.15 1.98-.35 2.23-.45 2.48-.777 3.708-2.705 3.307-5.058"/><path fill="#fff" d="M41.356 37.056q-.977-2.14-.452-4.055c.05-.126.1-.25.15-.25.051 0 .201.074.352.175.3.2.927.55 2.53 1.426 2.03 1.102 3.183 1.953 3.985 2.93.701.85 1.127 1.827 1.328 3.029.125.675.05 2.303-.125 2.979-.552 2.128-1.805 3.83-3.634 4.806-.276.15-.501.25-.526.25s.075-.25.225-.55c.602-1.277.677-2.504.226-3.88-.276-.852-.852-1.878-2.005-3.605-1.378-2.003-1.704-2.529-2.054-3.255m-18.669 7.66c1.854-1.552 4.135-2.653 6.24-3.004.902-.15 2.405-.1 3.232.125 1.328.351 2.53 1.102 3.157 2.028.602.901.877 1.678 1.153 3.405.1.676.226 1.377.25 1.527.201.901.602 1.602 1.103 1.978.777.575 2.13.6 3.458.1.226-.075.426-.15.426-.125.05.05-.626.5-1.077.726-.627.325-1.128.425-1.804.425-1.203 0-2.23-.626-3.058-1.877-.175-.25-.526-.977-.827-1.653-.876-2.027-1.328-2.628-2.355-3.304-.902-.576-2.055-.701-2.932-.276-1.152.551-1.453 2.028-.651 2.93.326.375.927.676 1.428.75.927.126 1.73-.6 1.73-1.526 0-.601-.226-.952-.828-1.227-.802-.35-1.679.05-1.654.826 0 .325.15.526.476.676.2.1.2.1.05.075-.726-.15-.902-1.052-.325-1.627.701-.701 2.18-.4 2.681.575.2.401.225 1.202.05 1.703-.426 1.101-1.629 1.677-2.857 1.352-.826-.226-1.177-.45-2.18-1.477-1.754-1.803-2.43-2.153-4.936-2.529l-.476-.075z"/><path fill="#fff" fill-rule="evenodd" d="M24.792 23.137c.376.5.226.976-.4 1.326-.351.2-1.078.401-1.429.401-.4 0-.877-.2-1.203-.526-.225-.225-2.66-3.81-4.866-7.24l1.283 2.734c1.93 3.43 2.556 4.656 2.556 4.807 0 .325-.1.5-.501.951-.677.751-.977 1.602-1.203 3.38-.25 1.977-.927 3.38-2.857 5.758-1.127 1.401-1.303 1.652-1.578 2.228-.351.7-.451 1.101-.502 2.002-.05.952.05 1.553.326 2.454.25.8.527 1.327 1.203 2.353.576.901.927 1.577.927 1.828 0 .2.05.2.952 0 2.155-.501 3.935-1.352 4.912-2.404.601-.65.752-1.001.752-1.902 0-.576-.026-.701-.176-1.052-.25-.55-.727-1.001-1.754-1.702-1.353-.927-1.93-1.678-2.08-2.679-.125-.851.025-1.427.777-3.004.777-1.627.977-2.303 1.103-3.955.075-1.052.2-1.477.5-1.803.326-.35.602-.476 1.379-.576 1.278-.175 2.105-.5 2.756-1.126.577-.526.827-1.052.852-1.828l.025-.576-.325-.35c-.51-.585-2.13-2.48-3.81-4.443-1.59-1.861-7.993-8.812-7.993-8.812-.109-.133 7.276 9.629 10.374 13.756M17.2 40.035a1.033 1.033 0 0 0-.326-1.377c-.426-.275-1.078-.15-1.078.225 0 .1.05.2.2.25.226.126.251.251.076.526-.175.276-.175.526.05.701.351.276.827.126 1.078-.325m10.148-13.168c-.601.175-1.177.826-1.353 1.477-.1.4-.05 1.126.125 1.351.276.351.527.451 1.228.451 1.378 0 2.556-.6 2.681-1.327.126-.6-.4-1.427-1.127-1.802-.376-.2-1.153-.276-1.554-.15m1.604 1.251c.2-.3.125-.625-.25-.85-.677-.426-1.705-.076-1.705.575 0 .325.527.676 1.028.676.326 0 .777-.2.927-.4" clip-rule="evenodd"/></g><rect width="63" height="63" x=".5" y=".804" stroke="#070B14" stroke-opacity=".15" rx="31.5"/><defs><clipPath id="uni_svg-a"><rect width="64" height="64" y=".304" fill="#fff" rx="32"/></clipPath></defs></svg>
